actions/16/draw-path.svg

<?xml version="1.0" encoding="UTF-8"?>
<svg id="h" width="16" height="16" version="1.1" xmlns="http://www.w3.org/2000/svg" xmlns:cc="http://creativecommons.org/ns#" xmlns:dc="http://purl.org/dc/elements/1.1/" xmlns:rdf="http://www.w3.org/1999/02/22-rdf-syntax-ns#">
	<metadata id="a">
		<rdf:RDF>
			<cc:Work rdf:about="">
				<dc:format>image/svg+xml</dc:format>
				<dc:type rdf:resource="http://purl.org/dc/dcmitype/StillImage"/>
				<dc:title/>
			</cc:Work>
		</rdf:RDF>
	</metadata>
	<defs>
		<style id="current-color-scheme" type="text/css">.ColorScheme-Text {color:#090d11;}.ColorScheme-Background{color:#ffffff;}</style>
	</defs>
	<path id="g" d="m4.5 0-0.375 2.5c0 4.7493 3.5636 8.7132 8.1562 9.3125l0.09375 0.1875h2.25l0.28125-0.53125 1-2 0.09375-0.21875v-8.25h-1v8l-1 2h-1l-0.1875-0.40625-0.8125-1.5938v-8h-1v8.25l0.125 0.21875 0.46875 0.9375c-3.5867-0.8484-6.7188-4.049-6.7188-7.9062l-0.125-2.5h-0.25zm7.5 1h3v-1h-3zm-10.5 10v1h2v-1zm-1.5 1.5v2h1v-2zm4 0v2h1v-2zm2 0.5v1h1v-1zm2 0v1h1v-1zm2 0v1h1v-1zm2 0v1h1v-1zm2 0v1h1v-1zm-12.5 2v1h2v-1z" style="fill-opacity:.5;fill:currentColor" class="ColorScheme-Background"/>
	<path id="f" d="m12 1v8l1 2h1l1-2v-8zm-9 1.5c0 5.359 3.8162 9.761 8.9687 10.5h-0.9687v1h1v-1c0.3272 0.046 0.6639 0.078 1 0.094v0.9063h1v-1h-0.5v-1.125c-5.175 0-9.5-4.2313-9.5-9.4063v-2.4687h-0.4843zm-2 9.5v3h3v-3h-2.5zm1 1h1v1h-1zm3 0v1h1v-1zm2 0v1h1v-1zm2 0v1h1v-1z" style="fill-opacity:.75;fill:currentColor" class="ColorScheme-Text"/>
</svg>

<?xml version="1.0" encoding="UTF-8" standalone="no"?>
<!-- Created with Inkscape (http://www.inkscape.org/) -->

<svg
   xmlns:dc="http://purl.org/dc/elements/1.1/"
   xmlns:cc="http://creativecommons.org/ns#"
   xmlns:rdf="http://www.w3.org/1999/02/22-rdf-syntax-ns#"
   xmlns:svg="http://www.w3.org/2000/svg"
   xmlns="http://www.w3.org/2000/svg"
   xmlns:sodipodi="http://sodipodi.sourceforge.net/DTD/sodipodi-0.dtd"
   xmlns:inkscape="http://www.inkscape.org/namespaces/inkscape"
   width="15.999998"
   height="15.999998"
   id="svg13094"
   version="1.1"
   inkscape:version="0.48.3.1 r9886"
   sodipodi:docname="draw-path.svg">
  <sodipodi:namedview
     id="base"
     pagecolor="#ffffff"
     bordercolor="#666666"
     borderopacity="1.0"
     inkscape:pageopacity="0.0"
     inkscape:pageshadow="2"
     inkscape:zoom="32"
     inkscape:cx="10.255919"
     inkscape:cy="8.2055772"
     inkscape:document-units="px"
     inkscape:current-layer="layer1"
     showgrid="true"
     inkscape:snap-bbox="true"
     inkscape:bbox-paths="true"
     inkscape:bbox-nodes="true"
     inkscape:snap-bbox-edge-midpoints="true"
     inkscape:snap-bbox-midpoints="true"
     inkscape:object-paths="true"
     inkscape:snap-intersection-paths="true"
     inkscape:object-nodes="true"
     inkscape:snap-smooth-nodes="true"
     inkscape:snap-midpoints="true"
     inkscape:snap-object-midpoints="true"
     inkscape:snap-center="true"
     showguides="false"
     inkscape:guide-bbox="true"
     inkscape:window-width="1920"
     inkscape:window-height="1023"
     inkscape:window-x="-10"
     inkscape:window-y="35"
     inkscape:window-maximized="1"
     inkscape:snap-global="false"
     fit-margin-top="0"
     fit-margin-left="0"
     fit-margin-right="0"
     fit-margin-bottom="0"
     showborder="true"
     inkscape:showpageshadow="false">
    <sodipodi:guide
       orientation="0,1"
       position="-25.000005,930.61286"
       id="guide4700" />
    <sodipodi:guide
       orientation="0,1"
       position="576.71887,328.89388"
       id="guide4702" />
    <sodipodi:guide
       orientation="1,0"
       position="576.71899,489.70395"
       id="guide4706" />
    <sodipodi:guide
       orientation="1,0"
       position="54.999996,930.61286"
       id="guide4708" />
    <sodipodi:guide
       orientation="0,1"
       position="-25.000005,850.61296"
       id="guide4710" />
    <sodipodi:guide
       orientation="0,1"
       position="536.71887,408.8938"
       id="guide4712" />
    <sodipodi:guide
       orientation="1,0"
       position="496.71887,408.8938"
       id="guide4714" />
    <inkscape:grid
       type="xygrid"
       id="grid3216"
       empspacing="5"
       visible="true"
       enabled="true"
       snapvisiblegridlinesonly="true"
       originx="-24.999951px"
       originy="-219.00005px" />
    <sodipodi:guide
       orientation="-0.70710664,0.70710692"
       position="4.0000502,-246.00005"
       id="guide3847" />
    <sodipodi:guide
       orientation="0.70710594,0.70710762"
       position="5.0000502,-245.00005"
       id="guide3849" />
    <sodipodi:guide
       orientation="-0.70710681,0.70710676"
       position="7.0000502,-212.00005"
       id="guide3851" />
  </sodipodi:namedview>
  <defs
     id="defs13096" />
  <metadata
     id="metadata13099">
    <rdf:RDF>
      <cc:Work
         rdf:about="">
        <dc:format>image/svg+xml</dc:format>
        <dc:type
           rdf:resource="http://purl.org/dc/dcmitype/StillImage" />
        <dc:title />
      </cc:Work>
    </rdf:RDF>
  </metadata>
  <g
     transform="translate(9379.308,-4843.1988)"
     id="layer1"
     inkscape:groupmode="layer"
     inkscape:label="Camada 1">
    <path
       style="font-size:medium;font-style:normal;font-variant:normal;font-weight:normal;font-stretch:normal;text-indent:0;text-align:start;text-decoration:none;line-height:normal;letter-spacing:normal;word-spacing:normal;text-transform:none;direction:ltr;block-progression:tb;writing-mode:lr-tb;text-anchor:start;baseline-shift:baseline;color:#000000;fill:#485462;fill-opacity:0.7;stroke:none;stroke-width:2;marker:none;visibility:visible;display:inline;overflow:visible;enable-background:accumulate;font-family:Sans;-inkscape-font-specification:Sans;fill-rule:nonzero"
       d="M 4.5 0 L 4.125 2.5 C 4.125 7.2493328 7.6886459 11.213157 12.28125 11.8125 L 12.375 12 L 13 12 L 14 12 L 14.625 12 L 14.90625 11.46875 L 15.90625 9.46875 L 16 9.25 L 16 9 L 16 1 L 15 1 L 15 9 L 14 11 L 13.5 11 L 13 11 L 12.8125 10.59375 L 12 9 L 12 1 L 11 1 L 11 9 L 11 9.25 L 11.125 9.46875 L 11.59375 10.40625 C 8.0070181 9.5578518 4.875 6.3572132 4.875 2.5 L 4.75 0 L 4.5 0 z M 12 1 L 15 1 L 15 0 L 12 0 L 12 1 z M 1.5 11 L 1.5 12 L 3.5 12 L 3.5 11 L 1.5 11 z M 0 12.5 L 0 14.5 L 1 14.5 L 1 12.5 L 0 12.5 z M 4 12.5 L 4 14.5 L 5 14.5 L 5 12.5 L 4 12.5 z M 6 13 L 6 14 L 7 14 L 7 13 L 6 13 z M 8 13 L 8 14 L 9 14 L 9 13 L 8 13 z M 10 13 L 10 14 L 11 14 L 11 13 L 10 13 z M 12 13 L 12 14 L 13 14 L 13 13 L 12 13 z M 14 13 L 14 14 L 15 14 L 15 13 L 14 13 z M 1.5 15 L 1.5 16 L 3.5 16 L 3.5 15 L 1.5 15 z "
       transform="translate(-9379.308,4843.1988)"
       id="path3919" />
    <path
       style="color:#000000;fill:#EDEFF3;fill-opacity:0.758;fill-rule:nonzero;stroke:none;stroke-width:1;marker:none;visibility:visible;display:inline;overflow:visible;enable-background:accumulate"
       d="m 12,1 0,8 1,2 1,0 1,-2 0,-8 z M 3,2.5 C 3,7.8589885 6.8161901,12.260953 11.96875,13 L 11,13 l 0,1 1,0 0,-1 c 0.327161,0.04596 0.663924,0.0782 1,0.09375 L 13,14 l 1,0 0,-1 -0.5,0 0,-1.125 C 8.325,11.875 4,7.64375 4,2.46875 l 4.9e-5,-2.468701907349 -0.484375,0 z m -2,9.5 0,0.5 0,2 0,0.5 0.5,0 2,0 0.5,0 0,-0.5 0,-2 0,-0.5 -0.5,0 -2,0 z m 1,1 1,0 0,1 -1,0 z m 3,0 0,1 1,0 0,-1 z m 2,0 0,1 1,0 0,-1 z m 2,0 0,1 1,0 0,-1 z"
       id="path4012"
       transform="translate(-9379.308,4843.1988)"
       inkscape:connector-curvature="0"
       sodipodi:nodetypes="cccccccccccccccccccccccccccccccccccccccccccccccccccccccc" />
  </g>
</svg>
